X:24
T:Prince of Wales March,2voices. JGi.024
M:C|
L:1/8
Q:1/4=130
S:Joshua Gibbons MS,1823,Tealby,Lincs.
R:march
O:Tealby,Lincolnshire
Z:VMP/R.Greig, 2009
K:C
[V:1]|:g>g|c’2g>ge2g>g|c’2g>ge2g>g|c2G>Gc2d2|e3dc2d2|
[V:2]|:G>G|c2G>GE2G>G|c2G>GE2G>G|E2E>EE2G2|c3GE2G2|
[V:1]e2e>ee2f2|g3fe2z2|f3ed2z2|e3d cGce|
[V:2]c2c>cc2d2|e3dc2z2|d3cB2z2|c3G EEEG|
[V:1]g2(3gag f2e2|d2d>dd2::z2|d2d>dd2c>d|e3dc2z2|
[V:2]e2(3efe d2c2|B2B>BB2::z2|B2B>BB2z2|c3GE2z2|
[V:1]e2e>e egfe|d2d>dd2z2|c2z2d2z2|e2efd2z2|
[V:2]c2c>c cedc|B2B>BB2z2|E2z2B2z2|c2cdB2z2|
[V:1]c2z2d2z2|e2efd2ef|gfef gfed|c2c>c”fine”c2:|
[V:2]E2z2B2z2|c2cdB2cd|edcd edcG|E2E>E”fine”E2:|
[V:1]|:”Trio”c>d|e3ee2d2|c2d ed2cB|A2f2d2B2|c2c>cc2c>d|
[V:2]|:z2|c3dc2G2|E2G2B2AG|F2A2G2D2|E2E>EE2z2|
[V:1]e3fe2d2|c3d/e/ d2A>B|B>Gc>eG2A2|G2G>GG2:|
[V:2]c3dc2G2|E3GB2A2|G2D2A,2D2|B,2B,2B,2:|
[V:1]|:z2|f4e2d2|c3d/e/d2G>A|.B2.c2.e2.e2|e4d2e>f|
[V:2]|:z2|d4c2G2|E3Gc2z2|.D2.E2.F2.G2|c4B2c>d|
[V:1]g3a/2g/2f2e2|f3g/2f/2e2d2|e>cf>ac2d2|c2c>c”DC”c2:|
[V:2]e3(f/2e/2)d2c2|d3(e/2d/2)c2B2|c2A2E2G2|E2E>E”DC”E2:|

